!!!ONB: MCCC : IJH0450_04 : Extracted Monophonic Melody
!!!COM: Haydn, Joseph
!!!OPR: String Quartet in E-flat major
!!!OMV: 4
!!!SCT: Hob.III:80 ; Op.76 No.6
!!!ODT: 1796///
**kern
*thru
*k[b-e-a-]
*E-:
*clefF
*M3/4
2e-
12a-
12f
12d
=1
4e-
4B-
4A-
=2
8G
8B-
8e-
8g
8b-
8ee-
=3
4b-
4a-
4g
=4
4.ee-
16ff
16gg
8b-
8r
=5
4.cc
16dd
16ee-
8f
8r
=6
8.g
32a-
32b-
4e-
4d
=7
2e-
4r
=8
4.bb-
16ccc
16ddd-
4ee
=9
8ff
8cc
2cc
=10
8dd-
8cc
8gg
8ee
8cc
8b-
=11
12a-
12g
12f
2f
=12
4.aa-
16bb-
16ccc
4ee-
=13
4.dd
16ee-
16ff
4a-
=14
8g
8b-
12cc
12b-
12a-
12g
12f
12e-
=15
2d
4r
=16
2.r
=17
4ee-
4gg
12aa-
12ff
12dd
=18
4ee-
4b-
4a-
=19
4g
4gg
12aa-
12ff
12dd
=20
8ee-
8gg
8ff
8ee-
8dd
8cc
=21
4b-
4a-
4g
=22
4.ee-
16ff
16gg
4b-
=23
4.cc
16dd
16ee-
4f
=24
8.g
32a-
32b-
4e-
4d
=25
2e-
4r
=26
2gg
8aa-
8gg
=27
8gg
8ff#
2ff#
=28
4ff
8ddd
8bb
8gg
8ff
=29
8ff
8ee-
4ee-
4r
=30
2.r
=31
4.aa-
8b
4cc
=32
2.r
=33
4.aa-
8b
4cc
=34
8.dd
16ee-
4cc
4b
=35
2cc
4r
=36
2r
4G
=37
4A-
4a-
4a-
=38
2r
4A
=39
4B-
4b-
4b-
=40
4r
4ff
4ff
=41
4r
4ee-
4ee-
=42
4r
4f
4f
=43
4r
4g
4g
=44
8.f
16a-
4e-
4d
=45
2e-
4r
=46
2gg
8aa-
8gg
=47
8gg
8ff#
2ff#
=48
4ff
8ddd
8bb
8gg
8ff
=49
8ff
8ee-
4ee-
4r
=50
2.r
=51
4.aa-
8b
4cc
=52
2.r
=53
4.aa-
8b
4cc
=54
8.dd
16ee-
4cc
4b
=55
2cc
4r
==
*-
